X: 125
T:Woman of the House
M:C
L:1/8
K:G
DBBA B2 BA |GABd eBdB | A3 B ABcd | eB (3BBB gfed |
ABBA B2 BA | GABd eBdB | GABG A2 GA | BGAG EG G2 :|
f3 d e ~B3 | efgf eB ~B2 | effd edBd | eaag abag |
f3 d e ~B3 | g3 e dcBA | GABG A2 GA |BGAG EG G2 :|
